assets/icons/yt-rvx.svg

<?xml version="1.0" encoding="UTF-8"?>
<svg viewBox="0 0 24 24" xmlns="http://www.w3.org/2000/svg">
    <path d="m11.255 0.024c-2.535 0.149-4.958 1.1-6.918 2.713-1.961 1.613-3.36 3.808-3.994 6.266-0.635 2.459-0.473 5.056 0.461 7.417 0.935 2.361 2.595 4.365 4.74 5.723s4.667 2.001 7.201 1.835c2.535-0.15 4.958-1.1 6.918-2.713 1.961-1.614 3.36-3.808 3.994-6.267 0.635-2.458 0.473-5.056-0.461-7.417-0.935-2.36-2.595-4.365-4.74-5.723-2.146-1.357-4.668-2-7.201-1.834z" fill="#1a202e"/>
    <path d="m10.77 16.39 5.43-3.95c0.33-0.24 0.33-0.64 0-0.88l-5.43-3.95c-0.16-0.12-0.27-0.29-0.3-0.49s0.02-0.4 0.13-0.56c0.12-0.16 0.29-0.27 0.49-0.3s0.4 0.02 0.56 0.13l6.9 5.02c0.45 0.32 0.45 0.85 0 1.18l-6.9 5.02c-0.16 0.12-0.36 0.17-0.56 0.14s-0.37-0.14-0.49-0.3-0.16-0.36-0.13-0.56c0.03-0.21 0.14-0.38 0.3-0.5z" fill="#ff4151"/>
    <path d="m7.71 17.2 5.96-4.2c0.78-0.55 0.78-1.45 0-2l-5.96-4.2c-0.78-0.55-1.41-0.23-1.41 0.73v8.94c0 0.96 0.63 1.28 1.41 0.73z" fill="#e5e9f0"/>
</svg>

<svg
    xmlns="http://www.w3.org/2000/svg"
    viewBox="0 0 24 24"
    id="vector">
    <path
        id="path"
        d="M 11.255 0.024 C 8.72 0.173 6.297 1.124 4.337 2.737 C 2.376 4.35 0.977 6.545 0.343 9.003 C -0.292 11.462 -0.13 14.059 0.804 16.42 C 1.739 18.781 3.399 20.785 5.544 22.143 C 7.689 23.501 10.211 24.144 12.745 23.978 C 15.28 23.828 17.703 22.878 19.663 21.265 C 21.624 19.651 23.023 17.457 23.657 14.998 C 24.292 12.54 24.13 9.942 23.196 7.581 C 22.261 5.221 20.601 3.216 18.456 1.858 C 16.31 0.501 13.788 -0.142 11.255 0.024 Z"
        fill="#1a202e"
        stroke-width="1"/>
    <path
        id="path_1"
        d="M 10.77 16.39 L 16.2 12.44 C 16.53 12.2 16.53 11.8 16.2 11.56 L 10.77 7.61 C 10.61 7.49 10.5 7.32 10.47 7.12 C 10.44 6.92 10.49 6.72 10.6 6.56 C 10.72 6.4 10.89 6.29 11.09 6.26 C 11.29 6.23 11.49 6.28 11.65 6.39 L 18.55 11.41 C 19 11.73 19 12.26 18.55 12.59 L 11.65 17.61 C 11.49 17.73 11.29 17.78 11.09 17.75 C 10.89 17.72 10.72 17.61 10.6 17.45 C 10.48 17.29 10.44 17.09 10.47 16.89 C 10.5 16.68 10.61 16.51 10.77 16.39 Z"
        fill="#ff4151"
        stroke-width="1"/>
    <path
        id="path_2"
        d="M 7.71 17.2 L 13.67 13 C 14.45 12.45 14.45 11.55 13.67 11 L 7.71 6.8 C 6.93 6.25 6.3 6.57 6.3 7.53 L 6.3 16.47 C 6.3 17.43 6.93 17.75 7.71 17.2 Z"
        fill="#e5e9f0"
        stroke-width="1"/>
</svg>
